X: 27
T: Pussy Cat, Pussy Cat
C: Elliott
%R: air, waltz, jig
B: "The Everyday Song Book", 1927
F: http://www.library.pitt.edu/happybirthday/pdf/The_Everyday_Song_Book.pdf
Z: 2017 John Chambers <jc:trillian.mit.edu>
M: 6/8
L: 1/8
K: G
% - - - - - - - - - - - - - - -
[| d B G d B G | d d d d3 | A F D
w: Pus-sy cat, pus-sy cat, where have you been? I've been to
%
   A F D | AAA A3 | G A B A B c |
w: Lon-don to vis-it the queen. Pus-sy cat, pus-sy cat,
%
   B c d He2 e | e d c B A G | F E D G z z |]
w: what did you there? I fright-ened a lit-tle mouse un-der her chair.
% - - - - - - - - - - - - - - -
